#define killerwhale_width 48
#define killerwhale_height 64
static char killerwhale_bits[] = {
  0xFF, 0xFF, 0xFF, 0xFF, 0xFF, 0xFF, 0xFF, 0xFF, 0xFF, 0xFF, 0xFF, 0xFF, 
  0xFF, 0xE7, 0xFF, 0xFF, 0x01, 0xFE, 0xFF, 0xCF, 0xFF, 0x1F, 0x00, 0xF8, 
  0xFF, 0x8F, 0xFF, 0x03, 0x1E, 0xF0, 0xFF, 0x1F, 0x7E, 0xC0, 0x3F, 0xC0, 
  0xFF, 0x1F, 0x3C, 0xE0, 0x0F, 0xC0, 0xFF, 0x3F, 0x08, 0xC0, 0x03, 0xC0, 
  0xFF, 0x3F, 0x00, 0x00, 0xC0, 0xFF, 0xFF, 0x7F, 0x00, 0x00, 0xF0, 0xFF, 
  0xFF, 0x7F, 0x00, 0x00, 0xFC, 0xFF, 0xFF, 0x7F, 0x00, 0x00, 0xFC, 0xFF, 
  0xFF, 0x7F, 0x00, 0x00, 0xFE, 0xFD, 0xFF, 0x3F, 0x00, 0x00, 0x7E, 0xFF, 
  0xFF, 0x3F, 0x00, 0x00, 0xBE, 0xFF, 0xFF, 0x1F, 0x00, 0x00, 0xCE, 0xFF, 
  0xFF, 0x0F, 0x00, 0x00, 0xE7, 0xFF, 0xFF, 0x0F, 0x00, 0x80, 0xE1, 0xFF, 
  0xFF, 0x0F, 0x00, 0xC0, 0xE0, 0xFF, 0xFF, 0x07, 0x00, 0x00, 0xE0, 0xFF, 
  0xFF, 0x07, 0x00, 0x00, 0xE0, 0xFF, 0xFF, 0x03, 0x00, 0x00, 0xE0, 0xFF, 
  0xFF, 0x03, 0x00, 0x30, 0xE0, 0xFF, 0xFF, 0x03, 0x00, 0x38, 0xF0, 0xFF, 
  0xFF, 0x03, 0x40, 0x3C, 0xF0, 0xFF, 0xFF, 0x03, 0x20, 0x3F, 0xF8, 0xFF, 
  0xFF, 0x79, 0x90, 0x7F, 0xFC, 0xFF, 0xFF, 0xF9, 0xC1, 0x7F, 0xFE, 0xFF, 
  0xFF, 0xF9, 0xE7, 0xFF, 0xFF, 0xFF, 0xFF, 0xFD, 0xF7, 0xFF, 0xFF, 0xFF, 
  0xFF, 0xFD, 0xFF, 0xFF, 0xFF, 0xFF, 0xFF, 0xFD, 0xFF, 0xFF, 0xFF, 0xFF, 
  0xFF, 0xFD, 0xFF, 0xFF, 0xFF, 0xFF, 0xFF, 0x3D, 0xFF, 0xFF, 0xFF, 0xFF, 
  0xFF, 0x3D, 0xFF, 0xFF, 0xFF, 0xFF, 0xFF, 0x19, 0xFF, 0xFF, 0xFF, 0xFF, 
  0xFF, 0x09, 0xFF, 0xFF, 0xFF, 0xFF, 0xFF, 0x09, 0xFF, 0xFF, 0xFF, 0xFF, 
  0xFF, 0x81, 0xFF, 0xFF, 0xFF, 0xFF, 0xFF, 0x81, 0xFF, 0xFF, 0xFF, 0xFF, 
  0xFF, 0x81, 0xFF, 0xFF, 0xFF, 0xFF, 0xFF, 0x81, 0xFF, 0xFF, 0xFF, 0xFF, 
  0xFF, 0xC3, 0xFF, 0xFF, 0xFF, 0xFF, 0xFF, 0xC3, 0xFF, 0xFF, 0xFF, 0xFF, 
  0xFF, 0xC3, 0xFF, 0xFF, 0xFF, 0xFF, 0xFF, 0xC1, 0xFF, 0xFF, 0xFF, 0xFF, 
  0xFF, 0xE1, 0xFF, 0xFF, 0xFF, 0xFF, 0xFF, 0xFD, 0xFF, 0xFF, 0xFF, 0xFF, 
  0xFF, 0xEF, 0xFF, 0xFF, 0xFF, 0xFF, 0xFF, 0xCE, 0xFF, 0xFF, 0xFF, 0xFF, 
  0xFF, 0xC6, 0xFF, 0xFF, 0xFF, 0xFF, 0x7F, 0xC0, 0xFF, 0xFF, 0xFF, 0xFF, 
  0x7F, 0xE0, 0xFF, 0xFF, 0xFF, 0xFF, 0x3F, 0xE1, 0xFF, 0xFF, 0xFF, 0xFF, 
  0xBF, 0xFF, 0xFF, 0xFF, 0xFF, 0xFF, 0xDF, 0xFF, 0xFF, 0xFF, 0xFF, 0xFF, 
  0xDF, 0xFF, 0xFF, 0xFF, 0xFF, 0xFF, 0xFF, 0xFF, 0xFF, 0xFF, 0xFF, 0xFF, 
  0xFF, 0xFF, 0xFF, 0xFF, 0xFF, 0xFF, 0xFF, 0xFF, 0xFF, 0xFF, 0xFF, 0xFF, 
  0xFF, 0xFF, 0xFF, 0xFF, 0xFF, 0xFF, 0xFF, 0xFF, 0xFF, 0xFF, 0xFF, 0xFF, 
  0xFF, 0xFF, 0xFF, 0xFF, 0xFF, 0xFF, 0xFF, 0xFF, 0xFF, 0xFF, 0xFF, 0xFF, 
  };
